icons/new/open-in-new-16.svg

<!-- This Source Code Form is subject to the terms of the Mozilla Public
   - License, v. 2.0. If a copy of the MPL was not distributed with this
   - file, You can obtain one at http://mozilla.org/MPL/2.0/. -->
<svg xmlns="http://www.w3.org/2000/svg" width="16" height="16" viewBox="0 0 16 16">
  <path fill="context-fill" d="M5,1 L4,1 C2.34314575,1 1,2.34314575 1,4 L1,12 C1,13.6568542 2.34314575,15 4,15 L12,15 C13.6568542,15 15,13.6568542 15,12 L15,11 C15,10.4477153 14.5522847,10 14,10 C13.4477153,10 13,10.4477153 13,11 L13,12 C13,12.5522847 12.5522847,13 12,13 L4,13 C3.44771525,13 3,12.5522847 3,12 L3,4 C3,3.44771525 3.44771525,3 4,3 L5,3 C5.55228475,3 6,2.55228475 6,2 C6,1.44771525 5.55228475,1 5,1 Z"/>
  <path fill="context-fill" d="M14.935313,1.618 C14.7808674,1.24435316 14.4166213,1.00047005 14.012313,1 L9.01231299,1 C8.46002824,1 8.01231299,1.44771525 8.01231299,2 C8.01231299,2.55228475 8.46002824,3 9.01231299,3 L11.598313,3 L8.30531299,6.293 C8.04535641,6.54407447 7.9411004,6.91587789 8.03261584,7.26550732 C8.12413128,7.61513676 8.39717624,7.88818172 8.74680567,7.97969716 C9.0964351,8.0712126 9.46823852,7.96695658 9.71931299,7.707 L13.012313,4.414 L13.012313,7 C13.012313,7.55228475 13.4600282,8 14.012313,8 C14.5645977,8 15.012313,7.55228475 15.012313,7 L15.012313,2 C15.0119445,1.86884934 14.9857812,1.73905202 14.935313,1.618 L14.935313,1.618 Z"/>
</svg>

<!-- This Source Code Form is subject to the terms of the Mozilla Public
   - License, v. 2.0. If a copy of the MPL was not distributed with this
   - file, You can obtain one at http://mozilla.org/MPL/2.0/. -->
<svg xmlns="http://www.w3.org/2000/svg" width="16" height="16" viewBox="0 0 16 16">
  <path fill="context-fill" d="M5 1H4a3 3 0 0 0-3 3v8a3 3 0 0 0 3 3h8a3 3 0 0 0 3-3v-1a1 1 0 0 0-2 0v1a1 1 0 0 1-1 1H4a1 1 0 0 1-1-1V4a1 1 0 0 1 1-1h1a1 1 0 1 0 0-2z"/>
  <path fill="context-fill" d="M14.935 1.618A1 1 0 0 0 14.012 1h-5a1 1 0 1 0 0 2h2.586L8.305 6.293A1 1 0 1 0 9.72 7.707l3.293-3.293V7a1 1 0 1 0 2 0V2a1 1 0 0 0-.077-.382z"/>
</svg>
